app/static/images/citybus.svg

<?xml version="1.0" encoding="utf-8"?>
<!-- Generator: Adobe Illustrator 18.0.0, SVG Export Plug-In . SVG Version: 6.00 Build 0)  -->
<!DOCTYPE svg PUBLIC "-//W3C//DTD SVG 1.1//EN" "http://www.w3.org/Graphics/SVG/1.1/DTD/svg11.dtd">
<svg version="1.1" id="Layer_1" xmlns="http://www.w3.org/2000/svg" xmlns:xlink="http://www.w3.org/1999/xlink" x="0px" y="0px"
	 viewBox="0 0 182 53.2" enable-background="new 0 0 182 53.2" xml:space="preserve">
<g>
	<g>
		<path fill="#0060A9" d="M46.8,33.5c-0.6,1.9,0.4,2,0.8,2.1L47.5,36c0,0-3.6,0-4.8,0c-0.7,0-1.2-0.5-0.9-1.5l5.1-16.3
			c0.2-0.6,0.4-0.9,1.5-0.9c1.5,0,3.4,0,3.4,0L46.8,33.5z"/>
		<path fill="#0060A9" d="M103.5,30.2c-0.4,1.5,0.4,2.1,2.5,2.1c2,0,3.7-0.8,4.1-2.1c0.5-1.5,2.7-8.8,3.8-12.1
			c0.2-0.6,0.4-0.9,1.5-0.9c1.5,0,3.5,0,3.5,0s-3.6,11.5-4.1,13.3c-1.1,3.7-5.4,5.8-9.7,5.8c-4.4,0-7.1-2.6-6.1-5.8l3.6-11.8
			c0.3-1,1.1-1.5,1.8-1.5c1.2,0,4.8,0,4.8,0l-0.1,0.4c-0.5,0.2-1.7,0.9-2.1,2.1L103.5,30.2z"/>
		<path fill="#0060A9" d="M68.5,20.8l2.4,6.4l-2.2,7.3c-0.3,1,0.1,1.5,0.9,1.5c1.2,0,4.8,0,4.8,0l0.1-0.4c-0.4-0.1-1.4-0.3-0.8-2.1
			l1.9-6L84,17.2c0,0-3.7,0-4.2,0c-0.5,0-0.9,0.4-1.4,0.9c-0.9,1.1-4.4,5.2-4.4,5.2l-1.5-4.3c-0.4-1.2-1.2-1.7-2.7-1.7H54.7
			c-1.1,0-1.3,0.4-1.5,0.9c-0.1,0.2-0.6,1.8-0.8,2.7h5.9l-4.2,13.6c-0.3,1,0.1,1.5,0.9,1.5c1.2,0,4.8,0,4.8,0l0.1-0.4
			c-0.4-0.1-1.4-0.3-0.8-2.1l3.9-12.7H68.5z"/>
		<path fill="#0060A9" d="M97.9,22.4c1.2-4-3-5.2-5.4-5.2h-5.6c-1.1,0-1.3,0.4-1.5,0.9l-5.1,16.3c-0.3,1,0.1,1.5,0.9,1.5H87
			c4.6,0,8.7-1,10.1-5.4c0.7-2.3-0.5-3.9-2.5-4.5C95.6,25.7,97.3,24.6,97.9,22.4z M92.6,30.2c-0.6,1.9-2.8,2.1-4.9,2.1
			c-0.7,0-1.5,0-2.1,0l1.3-4.3c0.5,0,1.2,0,1.5,0C90.8,28.1,93.2,28.4,92.6,30.2z M94,22.1c-0.6,1.8-2.6,2-4.3,2c-0.3,0-1,0-1.4,0
			l1.1-3.6c0.6,0,1.5,0,1.9,0C92.5,20.5,94.4,20.6,94,22.1z"/>
		<path fill="#0060A9" d="M117.1,32.3c-2,0-2.3,0.7-2.8,2.1l-0.5,1.5h9.8c2.7,0,4.9-1.2,5.7-3.2c0.8-1.9,0.3-4.1-1.3-5.6l-3.7-3.6
			c-0.5-0.5-0.7-1.2-0.5-1.7c0.3-0.7,1.2-1,2.4-1h3.9c2,0,2.3-0.7,2.8-2.1l0.5-1.5h-7.9c-2.7,0-4.9,1.2-5.7,3.2
			c-0.7,1.9-0.3,4.1,1.3,5.6l3.7,3.6c0.5,0.5,0.7,1.2,0.5,1.8c-0.3,0.7-1.2,1-2.4,1H117.1z"/>
		<path fill="#0060A9" d="M41.7,21.2c2,0,2.3-0.7,2.8-2.1l0.6-1.9h-5.3c-9,0-12.8,6.6-12.8,11.4c0,5.2,3.8,7.7,7.3,7.7
			c1.9,0,3.9-0.4,5.1-1.1l1.2-4c-0.7,0.4-3.4,1.2-5.4,1.2c-3.3,0-3.5-2.8-3.5-4.5c0-2.1,1.8-6.7,8.1-6.7H41.7z"/>
	</g>
	<g>
		<path fill="#0060A9" d="M141.1,27.6c0.2-0.4,0.2-0.6-0.2-0.4c-0.8,0.4-1.3,0.7-2,1l1.6-5.2h1.7l0.6-2h-1.7l1.6-5h-2
			c-1.1,0-1.3,0.4-1.4,0.9L138,21h-0.6c-1.1,0-1.3,0.4-1.5,0.9c-0.2,0.8-0.3,1.1-0.3,1.1h1.8l-1.9,6.2c-0.7,0.1-1.4,0.3-2.3,0.4
			l0.6,2.3c0.1,0.4,0.6,0.6,1.2,0.4C137.8,31.2,140.4,28.8,141.1,27.6z"/>
		<path fill="#0060A9" d="M160.8,14.9h-1.4l-0.7,2.3h-1.5c0.4-1.4,0.7-2.3,0.7-2.3s-0.3,0-1.8,0c-1.1,0-1.3,0.4-1.5,0.9
			c-0.1,0.4-0.3,0.8-0.4,1.3h-7.4c-1.2,0-1.9,0.7-2.2,1.4c0,0-2,6.4-2.6,8.4c-0.9,3-3.7,5.9-5.2,7.4l1.9,0.9
			c0.5,0.2,1.2,0.2,1.7-0.3c2.2-2.3,3.8-4.3,4.8-7.6c0.2-0.7,0.6-1.8,0.9-3.1h1.7c0,0-0.7,2.3-1.3,4.1c-0.6,1.9-1.5,1.4-2,1.3
			l-0.1,0.4c0,0,1.5,1.1,2.5,1.8c0.6,0.4,1.3,0.3,1.6-0.7c0.2-0.7,2.7-8.8,2.7-8.8h-4.6c0.3-1.1,0.7-2.2,0.9-3.1h5.9
			c-1.4,4.4-3.2,10.5-3.4,11.1c-0.2,0.7-0.4,1.2-0.4,1.7c-1.1,0.9-2.3,1.6-3.7,2.3l1.6,1.6c0.8-0.4,1.5-0.8,2.2-1.3
			c0.5,1,1.7,1.3,3,1.3c1.2,0,3.2,0,3.2,0l0.1-0.4c-1.8-0.5-3.5-0.6-3.4-3.3c4.6-4.3,6.3-9.5,6.3-9.5l-2-0.5
			c-0.5,1.2-1.5,3.2-3.1,5.3c0.7-2.1,1.7-5.6,2.6-8.4h4.1l1-3.4C161.8,15.1,161.7,14.9,160.8,14.9z"/>
	</g>
	<path fill="#0060A9" d="M179.5,17.2l-13.7,0c-1.2,0-2,0.7-2.2,1.4c0,0-2.4,8-3.1,10.2c-0.7,2.3-2.1,7.2,6.2,7.2h7.4
		c2.1,0,3.6-1,4.2-2.9l0.9-3h-3.4l-0.9,3h-9.2c-2.4,0-2.7-1.2-2.1-3.3c0.2-0.5,0.5-1.6,0.8-2.8h15.7l1.9-6.6
		C182.4,18.6,181.4,17.2,179.5,17.2z M166.6,19.3h4.5l-1.7,5.8h-4.5C165.5,22.8,166.2,20.5,166.6,19.3z M178.5,20.6l-1.3,4.5h-4.6
		l1.7-5.8h3.1C178.4,19.3,178.8,19.6,178.5,20.6z"/>
	<path fill="#EF3E33" d="M176.5,38.1H26.2l-1.6,9.1L7.6,26.6L31.8,6l-1.6,9h36.6c-0.2-0.4-0.4-0.7-0.5-1.1h12.9
		c-0.2-0.4-0.4-0.7-0.6-1.1H49.4c-0.4-0.7-0.9-1.5-1.4-2.2h16.2c-0.3-0.4-0.6-0.7-0.8-1.1h12.9c-0.3-0.4-0.6-0.7-0.9-1.1H46.2
		c-0.7-0.8-1.4-1.5-2.2-2.2h16.2c-0.4-0.4-0.9-0.7-1.3-1.1h12.9c-0.5-0.4-1-0.7-1.5-1.1H41.1c-1.3-0.8-2.6-1.6-4-2.2h16.2
		c-1-0.4-2-0.8-3-1.1h12.9C60.8,0.4,58.3,0,55.7,0H26.6C11.9,0,0,11.9,0,26.6c0,14.7,11.9,26.6,26.6,26.6c9.7,0,18.1-5.2,22.8-12.9
		h126.5L176.5,38.1z"/>
</g>
</svg>

<?xml version="1.0" encoding="UTF-8" standalone="no"?>
<!-- Generator: Adobe Illustrator 18.0.0, SVG Export Plug-In . SVG Version: 6.00 Build 0)  -->

<svg
   xmlns:dc="http://purl.org/dc/elements/1.1/"
   xmlns:cc="http://creativecommons.org/ns#"
   xmlns:rdf="http://www.w3.org/1999/02/22-rdf-syntax-ns#"
   xmlns:svg="http://www.w3.org/2000/svg"
   xmlns="http://www.w3.org/2000/svg"
   xmlns:sodipodi="http://sodipodi.sourceforge.net/DTD/sodipodi-0.dtd"
   xmlns:inkscape="http://www.inkscape.org/namespaces/inkscape"
   version="1.1"
   id="Layer_1"
   x="0px"
   y="0px"
   viewBox="0 0 79.199997 53.2"
   enable-background="new 0 0 182 53.2"
   xml:space="preserve"
   inkscape:version="0.91 r13725"
   sodipodi:docname="citybus.svg"
   width="79.199997"
   height="53.200001"><metadata
     id="metadata3541"><rdf:RDF><cc:Work
         rdf:about=""><dc:format>image/svg+xml</dc:format><dc:type
           rdf:resource="http://purl.org/dc/dcmitype/StillImage" /><dc:title></dc:title></cc:Work></rdf:RDF></metadata><defs
     id="defs3539" /><sodipodi:namedview
     pagecolor="#ffffff"
     bordercolor="#666666"
     borderopacity="1"
     objecttolerance="10"
     gridtolerance="10"
     guidetolerance="10"
     inkscape:pageopacity="0"
     inkscape:pageshadow="2"
     inkscape:window-width="1916"
     inkscape:window-height="1041"
     id="namedview3537"
     showgrid="false"
     fit-margin-top="0"
     fit-margin-left="0"
     fit-margin-right="0"
     fit-margin-bottom="0"
     inkscape:zoom="4.97"
     inkscape:cx="28.444231"
     inkscape:cy="26.6"
     inkscape:window-x="0"
     inkscape:window-y="18"
     inkscape:window-maximized="0"
     inkscape:current-layer="Layer_1" /><path
     style="fill:#ef3e33"
     inkscape:connector-curvature="0"
     id="path3535"
     d="m 78.5,38.1 -52.3,0 -1.6,9.1 L 7.6,26.6 31.8,6 l -1.6,9 36.6,0 c -0.2,-0.4 -0.4,-0.7 -0.5,-1.1 l 12.9,0 C 79,13.5 78.8,13.2 78.6,12.8 l -29.2,0 C 49,12.1 48.5,11.3 48,10.6 l 16.2,0 C 63.9,10.2 63.6,9.9 63.4,9.5 l 12.9,0 C 76,9.1 75.7,8.8 75.4,8.4 l -29.2,0 C 45.5,7.6 44.8,6.9 44,6.2 l 16.2,0 C 59.8,5.8 59.3,5.5 58.9,5.1 l 12.9,0 C 71.3,4.7 70.8,4.4 70.3,4 L 41.1,4 C 39.8,3.2 38.5,2.4 37.1,1.8 l 16.2,0 c -1,-0.4 -2,-0.8 -3,-1.1 l 12.9,0 C 60.8,0.4 58.3,0 55.7,0 L 26.6,0 C 11.9,0 0,11.9 0,26.6 0,41.3 11.9,53.2 26.6,53.2 36.3,53.2 44.7,48 49.4,40.3 l 28.5,0 z"
     sodipodi:nodetypes="cccccccccccccccccccccccccccssssccc" /></svg>
